world_stage/static/flags/rect/dji.svg

<svg height="533.33331" viewBox="0 0 800 533.33331" width="800" xmlns="http://www.w3.org/2000/svg"><path d="m0 0h600v400h-600z" fill="#6ab2e7" transform="matrix(1.3333333 0 0 -1.3333333 0 533.33333)"/><path d="m0 0h600v200h-600z" fill="#12ad2b" transform="matrix(1.3333333 0 0 -1.3333333 0 533.33333)"/><path d="m0 0v-200-200l173.205 100 173.205 100-173.205 100z" fill="#fff" transform="matrix(1.3333333 0 0 -1.3333333 0 .000533)"/><path d="m0 0 12.411-38.197h40.162l-32.492-23.607 12.411-38.196-32.492 23.606-32.492-23.606 12.411 38.196-32.492 23.607h40.162z" fill="#d7141a" transform="matrix(1.3333333 0 0 -1.3333333 176.76427 200)"/></svg>

<?xml version="1.0" encoding="UTF-8" standalone="no"?>
<!-- Created with Inkscape (http://www.inkscape.org/) -->

<svg
   version="1.1"
   id="svg1"
   width="800"
   height="533.33331"
   viewBox="0 0 800 533.33331"
   sodipodi:docname="dj.ai"
   xmlns:inkscape="http://www.inkscape.org/namespaces/inkscape"
   xmlns:sodipodi="http://sodipodi.sourceforge.net/DTD/sodipodi-0.dtd"
   xmlns="http://www.w3.org/2000/svg"
   xmlns:svg="http://www.w3.org/2000/svg">
  <defs
     id="defs1" />
  <sodipodi:namedview
     id="namedview1"
     pagecolor="#ffffff"
     bordercolor="#000000"
     borderopacity="0.25"
     inkscape:showpageshadow="2"
     inkscape:pageopacity="0.0"
     inkscape:pagecheckerboard="0"
     inkscape:deskcolor="#d1d1d1">
    <inkscape:page
       x="0"
       y="0"
       inkscape:label="1"
       id="page1"
       width="800"
       height="533.33331"
       margin="0"
       bleed="0" />
  </sodipodi:namedview>
  <g
     id="layer-MC0"
     inkscape:groupmode="layer"
     inkscape:label="Layer 1">
    <path
       id="path1"
       d="M 0,0 H 600 V 400 H 0 Z"
       style="fill:#6ab2e7;fill-opacity:1;fill-rule:nonzero;stroke:none"
       transform="matrix(1.3333333,0,0,-1.3333333,0,533.33333)" />
    <path
       id="path2"
       d="M 0,0 H 600 V 200 H 0 Z"
       style="fill:#12ad2b;fill-opacity:1;fill-rule:nonzero;stroke:none"
       transform="matrix(1.3333333,0,0,-1.3333333,0,533.33333)" />
    <path
       id="path3"
       d="m 0,0 v -200 -200 l 173.205,100 173.205,100 -173.205,100 z"
       style="fill:#ffffff;fill-opacity:1;fill-rule:nonzero;stroke:none"
       transform="matrix(1.3333333,0,0,-1.3333333,0,5.3333333e-4)" />
    <path
       id="path4"
       d="M 0,0 12.411,-38.197 H 52.573 L 20.081,-61.804 32.492,-100 0,-76.394 -32.492,-100 l 12.411,38.196 -32.492,23.607 h 40.162 z"
       style="fill:#d7141a;fill-opacity:1;fill-rule:nonzero;stroke:none"
       transform="matrix(1.3333333,0,0,-1.3333333,176.76427,200)" />
  </g>
</svg>
